X: 15
T:Hundred Pipers
R:march
N:(*) G chords give even more  version.
O:trad Scotland
Z:\251 1997 by John Chambers <jc@eddie.mit.edu> http://eddie.mit.edu/~jc/
M:6/8
L:1/8
K:G
|:GA |B2D D>ED|E2G G2e|d2B B>AG|
B2A A>GA |B2D D>ED|E2G G2e|d2B A>GA|
G3- G :: Bc |d2d dBd|e2g gfe|d2B B>AG|
B2A ABc |d2d dBd|e2g gfe|d2B A>GA|G3- G:|
